X:86
T:Halling
R:Halling
O:Norway
M:2/4
K:DDor
DE |\
F2d2 E2e2|d2~c2 A2DE|F2d2 E2e2|d2^c2 d2:|
|: DE|\
F2FD C2CA,|B,2B,^C D2DE|F2FD C2CA,|B,^C3 D4:|
